!!!Genre:	Freylekhs
!!!Mode:	Altered Dorian
!!!Listening/dance:	dance
!!!:	*G:
!!!One_Mode:	no
**kern
*thru
*part1
*staff1
*clefG2
*k[b-]
*g:dor
*M2/4
*>A
=1-
(>8.ggL
16ddJk)
16ggLL
16ff
16ee
16ddJJ
=2
16ggLL
16dd
16gg
16ddJJ
16ggLL
16ff
16ee
16ddJJ
=3
16eeLL
16ff
16ee
16ddJJ
16cc#XLL
16a
16cc#
16eeJJ
*>A1
=4
16ddLL
16cc#X
16b-
16aJJ
8gL
8ddJ
*>A2
=5:|!
16ddLL
16cc#X
16b-
16aJJ
4g
=6!|:
*>B
8gL
16ggL
16ffJJ
16eeLL
16dd
16cc#X
16b-JJ
=7
8cc#XL
16b-L
16aJJ
8gL
8ggJ
=8
8gL
16ggL
16ffJJ
16eeLL
16dd
16cc#X
16b-JJ
=9
8cc#XL
16b-L
16aJJ
4g
*>bM
*G:
=10:|!|:
*k[f#]
*>C
8.bnL
16aJk
16bLL
16cc
16dd
16ccJJ
=11
8bL
16bL
16aJJ
16bLL
16cc
16dd
16ccJJ
=12
8bL
16bL
16aJJ
16bLL
16cc
16dd
16ccJJ
=13
(>16bLL
16cc)
(>16a
16bJJ)
4g
=14:|!|:
*>D
8a
4a
8cc
=15
8.bL
16aJk
16bLL
16ccJ
8ddJ
=16
8a
4a
8cc
=17
(16bLL
16cc)
(16a
16bJJ)
4g
=:|!
*>eM
*-
